!!!COM: Manuel de Falla (y Matheu)
!!!OTL: [T318_Fal-w5p77h43m2-11]
**kern	**dynam	**kern	**dynam	**kern	**dynam	**kern	**dynam	**kern	**dynam	**kern	**kern	**kern	**kern	**dynam	**kern	**dynam	**kern	**dynam	**kern	**dynam	**kern	**dynam	**kern	**dynam
*part12	*part12	*part11	*part11	*part10	*part10	*part9	*part9	*part8	*part8	*part7	*part7	*part6	*part6	*part6	*part5	*part5	*part4	*part4	*part3	*part3	*part2	*part2	*part1	*part1
*staff14	*	*staff13	*	*staff12	*	*staff11	*	*staff10	*	*staff9	*staff8	*staff7	*staff6	*	*staff5	*	*staff4	*	*staff3	*	*staff2	*	*staff1	*
*I"Contrabass	*	*I"Violoncello	*	*I"Viola	*	*I"Violin II	*	*I"Violin I	*	*I"Piano	*	*I"Harp	*	*	*I"Timpani	*	*I"Trumpet in C I.II.	*	*I"Horn in F III.IV.	*	*I"Horn in F I.II.	*	*I"English Horn	*
*I'Cb.	*	*I'Vc.	*	*I'Vla.	*	*I'2.Vln.	*	*I'1.Vln.	*	*I'Pno.	*	*I'Hp.	*	*	*I'Timp.	*	*I'1.2.Tpt.	*	*I'3.4.Hn.	*	*I'1.2.Hn.	*	*I'E.H.	*
!!pagebreak:original
*clefF4	*	*clefF4	*	*clefC3	*	*clefG2	*	*clefG2	*	*clefF4	*clefG2	*clefF4	*clefG2	*	*clefF4	*	*clefG2	*	*clefF4	*	*clefG2	*	*clefG2	*
*ITrd0c0	*	*	*	*	*	*	*	*	*	*	*	*	*	*	*	*	*	*	*ITrd-3c-5	*	*ITrd4c7	*	*ITrd4c7	*
*k[]	*	*k[]	*	*k[]	*	*k[]	*	*k[]	*	*k[]	*k[]	*k[]	*k[]	*	*k[]	*	*k[]	*	*k[b-]	*	*k[b-]	*	*k[]	*
*C:	*	*C:	*	*C:	*	*C:	*	*C:	*	*C:	*C:	*C:	*C:	*	*C:	*	*C:	*	*F:	*	*F:	*	*C:	*
*M9/8	*	*M9/8	*	*M9/8	*	*M9/8	*	*M9/8	*	*M9/8	*M9/8	*M9/8	*M9/8	*	*M9/8	*	*M9/8	*	*M9/8	*	*M9/8	*	*M9/8	*
=1	=1	=1	=1	=1	=1	=1	=1	=1	=1	=1	=1	=1	=1	=1	=1	=1	=1	=1	=1	=1	=1	=1	=1	=1
*	*	*^	*	*	*	*	*	*	*	*	*	*	*	*	*	*	*	*	*^	*	*	*	*	*
!LO:TX:a:t=Tutti con sord.arco	!	!LO:TX:a:t=pizz.	!	!	!LO:TX:a:t=Tutte pizz.	!	!LO:TX:a:t=Tutti pizz.	!	!LO:TX:a:t=Tutti pizz.	!	!	!LO:TX:b:t=[pp]	!	!	!	!	!	!	!	!	!	!	!	!	!	!
[2.FF#X	pp	4D#X	4FF#X	mf	4B	mf	4f#X	mf	4b	mf	8FFF#X' 8FF#X	8B': 8d#X: 8f#X: 8b:	8r	8%9r	>	8FF#XL	p >	[2.B [2.b	pp >	[2.D#X	[2.FF#X	p >	[2.d#X [2.f#X	p >	8%9r	.
.	.	.	.	.	.	.	.	.	.	.	8r	8r	8FF#XL	.	p	16FF#L	.	.	.	.	.	.	.	.	.	.
.	.	.	.	.	.	.	.	.	.	.	.	.	.	.	.	16FF#	.	.	.	.	.	.	.	.	.	.
*	*	*v	*v	*	*	*	*	*	*	*	*	*	*	*	*	*	*	*	*	*	*	*	*	*	*	*
.	.	8r	.	8r	.	8r	.	8r	.	8r	8r	8GG-XJ	.	.	16FF#	.	.	.	.	.	.	.	.	.	.
.	.	.	.	.	.	.	.	.	.	.	.	.	.	.	16FF#JJ	.	.	.	.	.	.	.	.	.	.
.	.	4r	.	4.r	.	4.r	.	4r	.	4r	4.r	8FF#L	.	.	8FF#L	.	.	.	.	.	.	.	.	.	.
.	.	.	.	.	.	.	.	.	.	.	.	8GG-	.	.	8FF#	.	.	.	.	.	.	.	.	.	.
.	.	8r	.	.	.	.	.	8r	.	8r	.	8FF#J	.	.	8FF#J	.	.	.	.	.	.	.	.	.	.
4.FF#_	.	4r	.	4.r	.	4.r	.	4r	.	4r	4.r	8r	.	.	8r	.	4.B] 4.b]	]	4.D#_	4.FF#_	]	4.d#_ 4.f#_	]	.	.
.	.	.	.	.	.	.	.	.	.	.	.	8GG-L	.	.	8FF#L	.	.	.	.	.	.	.	.	.	.
.	.	8r	.	.	.	.	.	8r	.	8r	.	8FF#J	.	]	8FF#J	]	.	.	.	.	.	.	.	.	.
=2	=2	=2	=2	=2	=2	=2	=2	=2	=2	=2	=2	=2	=2	=2	=2	=2	=2	=2	=2	=2	=2	=2	=2	=2	=2
2.FF#X_	.	4.r	.	4r	.	4r	.	4r	.	8%9r	8%9r	8r	8%9r	.	8r	.	8%9r	.	4D#X]	2.FF#X_	.	4d#X] 4f#X]	.	8%9r	.
.	.	.	.	.	.	.	.	.	.	.	.	8FF#XL	.	.	16FF#XLL	.	.	.	.	.	.	.	.	.	.
.	.	.	.	.	.	.	.	.	.	.	.	.	.	.	16FF#	.	.	.	.	.	.	.	.	.	.
.	.	.	.	8r	.	8r	.	8r	.	.	.	8GG-XJ	.	.	16FF#	.	.	.	8r	.	.	8r	.	.	.
.	.	.	.	.	.	.	.	.	.	.	.	.	.	.	16FF#JJ	.	.	.	.	.	.	.	.	.	.
!	!	!LO:TX:a:t=div.	!	!	!	!	!	!	!	!	!	!	!	!	!	!	!	!	!	!	!	!	!	!	!
.	.	4.r	.	4r	.	4r	.	4r	.	.	.	8FF#L	.	.	8FF#L	.	.	.	4r	.	.	4r	.	.	.
.	.	.	.	.	.	.	.	.	.	.	.	8GG-	.	.	8FF#	.	.	.	.	.	.	.	.	.	.
.	.	.	.	8r	.	8r	.	8r	.	.	.	8FF#J	.	.	8FF#J	.	.	.	8r	.	.	8r	.	.	.
*	*	*clefC4	*	*	*	*	*	*	*	*	*	*	*	*	*	*	*	*	*	*	*	*	*	*	*
!	!	!LO:TX:a:t=arcocon sord.	!	!LO:TX:a:t=arcocon sord.	!	!LO:TX:a:t=arcocon sord.	!	!LO:TX:a:t=arcocon sord.	!	!	!	!	!	!	!	!	!	!	!	!	!	!	!	!	!
4.FF#_	.	((4.B-X 4.a-X	pp > ]	(4.dd	pp > ]	(4.gg#X	pp > ]	(4.eee	pp > ]	.	.	8r	.	.	8r	.	.	.	4r	4.FF#_	.	((4.B- 4.a-X	pp	.	.
.	.	.	.	.	.	.	.	.	.	.	.	8GG-L	.	.	8FF#L	.	.	.	.	.	.	.	.	.	.
.	.	.	.	.	.	.	.	.	.	.	.	8FF#J	.	.	8FF#J	.	.	.	8r	.	.	.	.	.	.
=3	=3	=3	=3	=3	=3	=3	=3	=3	=3	=3	=3	=3	=3	=3	=3	=3	=3	=3	=3	=3	=3	=3	=3	=3	=3
!	!	!LO:TX:a:t=unis.	!	!	!	!	!	!	!	!	!	!	!	!	!	!	!	!	!	!	!	!	!	!	!
2.FF#X_	.	([4.e-X))	.	([4.g)	.	([4.cc#X)	.	([4.aa)	.	8%9r	8%9r	8r	8%9r	.	8r	.	8%9r	.	8%9r	2.FF#X_	.	4.e-X 4.dd-X))	>	8%9r	.
.	.	.	.	.	.	.	.	.	.	.	.	8FF#XL	.	.	16FF#XLL	.	.	.	.	.	.	.	.	.	.
.	.	.	.	.	.	.	.	.	.	.	.	.	.	.	16FF#	.	.	.	.	.	.	.	.	.	.
.	.	.	.	.	.	.	.	.	.	.	.	8GG-XJ	.	.	16FF#	.	.	.	.	.	.	.	.	.	.
.	.	.	.	.	.	.	.	.	.	.	.	.	.	.	16FF#JJ	.	.	.	.	.	.	.	.	.	.
.	.	8.d#XL]	<	8.gL]	<	8.cc#L]	<	8.aaL]	<	.	.	8FF#L	.	.	8FF#L	.	.	.	.	.	.	4r	]	.	.
.	.	.	.	.	.	.	.	.	.	.	.	8GG-	.	.	8FF#	.	.	.	.	.	.	.	.	.	.
.	.	8.f#X	.	8.a	.	8.dd#X	.	8.bb	.	.	.	.	.	.	.	.	.	.	.	.	.	.	.	.	.
.	.	.	.	.	.	.	.	.	.	.	.	8FF#J	.	.	8FF#J	.	.	.	.	.	.	8r	.	.	.
4.FF#_	.	8.g#X	.	8.b	.	8.ee#X	.	8.ccc#X	.	.	.	8r	.	.	8r	.	.	.	.	4.FF#_	.	4r	.	.	.
.	.	.	.	.	.	.	.	.	.	.	.	8GG-L	.	.	8FF#L	.	.	.	.	.	.	.	.	.	.
.	.	8.aJ)	[	8.ccJ)	[	8.ff#XJ)	[	8.dddJ)	[	.	.	.	.	.	.	.	.	.	.	.	.	.	.	.	.
.	.	.	.	.	.	.	.	.	.	.	.	8FF#J	.	.	8FF#J	.	.	.	.	.	.	8r	.	.	.
!!pagebreak:original
=4	=4	=4	=4	=4	=4	=4	=4	=4	=4	=4	=4	=4	=4	=4	=4	=4	=4	=4	=4	=4	=4	=4	=4	=4	=4
2.FF#_	.	2.d#X	>	2.f#X	>	2.b#X	>	2.gg#X	>	8%9r	8%9r	8r	8%9r	.	8r	.	8%9r	.	8%9r	4.FF#X]	.	4r	.	8%9r	.
.	.	.	.	.	.	.	.	.	.	.	.	8FF#XL	.	.	16FF#XLL	.	.	.	.	.	.	.	.	.	.
.	.	.	.	.	.	.	.	.	.	.	.	.	.	.	16FF#	.	.	.	.	.	.	.	.	.	.
.	.	.	.	.	.	.	.	.	.	.	.	8GG-XJ	.	.	16FF#	.	.	.	.	.	.	8r	.	.	.
.	.	.	.	.	.	.	.	.	.	.	.	.	.	.	16FF#JJ	.	.	.	.	.	.	.	.	.	.
.	.	.	.	.	.	.	.	.	.	.	.	8FF#L	.	.	8FF#L	.	.	.	.	[2.FF#	.	4r	.	.	.
.	.	.	.	.	.	.	.	.	.	.	.	8GG-	.	.	8FF#	.	.	.	.	.	.	.	.	.	.
.	.	.	.	.	.	.	.	.	.	.	.	8FF#J	.	.	8FF#J	.	.	.	.	.	.	8r	.	.	.
!	!	!LO:TX:a:t=div.	!	!	!	!	!	!	!	!	!	!	!	!	!	!	!	!	!	!	!	!	!	!	!
4.FF#_	.	((4.dn 4.g#X	] > ]	(4.b	] > ]	(4.ee#X	] > ]	(4.ccc#X	] > ]	.	.	8r	.	.	8r	.	.	.	.	.	.	((4.d 4.g#X	.	.	.
.	.	.	.	.	.	.	.	.	.	.	.	8GG-L	.	.	8FF#L	.	.	.	.	.	.	.	.	.	.
.	.	.	.	.	.	.	.	.	.	.	.	8FF#J	.	.	8FF#J	.	.	.	.	.	.	.	.	.	.
=5	=5	=5	=5	=5	=5	=5	=5	=5	=5	=5	=5	=5	=5	=5	=5	=5	=5	=5	=5	=5	=5	=5	=5	=5	=5
!	!	!LO:TX:a:t=unis.	!	!	!	!	!	!	!	!	!	!	!	!	!	!	!	!	!	!	!	!	!	!	!
2.FF#X_	.	([4.c))	.	([4.e)	.	([4.a#X)	.	([4.ff#X)	.	8%9r	8%9r	8r	8%9r	.	8r	.	8%9r	.	8%9r	2.FF#X_	.	4.c 4.a#X))	>	8%9r	.
.	.	.	.	.	.	.	.	.	.	.	.	8FF#XL	.	.	16FF#XLL	.	.	.	.	.	.	.	.	.	.
.	.	.	.	.	.	.	.	.	.	.	.	.	.	.	16FF#	.	.	.	.	.	.	.	.	.	.
.	.	.	.	.	.	.	.	.	.	.	.	8GG-XJ	.	.	16FF#	.	.	.	.	.	.	.	.	.	.
.	.	.	.	.	.	.	.	.	.	.	.	.	.	.	16FF#JJ	.	.	.	.	.	.	.	.	.	.
.	.	8.cL]	<	8.eL]	<	8.a#L]	<	8.ff#L]	<	.	.	8FF#L	.	.	8FF#L	.	.	.	.	.	.	4r	]	.	.
.	.	.	.	.	.	.	.	.	.	.	.	8GG-	.	.	8FF#	.	.	.	.	.	.	.	.	.	.
.	.	8.d#X	.	8.f#X	.	8.b#X	.	8.gg#X	.	.	.	.	.	.	.	.	.	.	.	.	.	.	.	.	.
.	.	.	.	.	.	.	.	.	.	.	.	8FF#J	.	.	8FF#J	.	.	.	.	.	.	8r	.	.	.
4.FF#_	.	8.e	.	8.g	.	8.cc#X	.	8.aa	.	.	.	8r	.	.	8r	.	.	.	.	4.FF#_	.	4r	.	.	.
.	.	.	.	.	.	.	.	.	.	.	.	8GG-L	.	.	8FF#L	.	.	.	.	.	.	.	.	.	.
.	.	8.f#XJ)	[	8.aJ)	[	8.dd#XJ)	[	8.bbJ)	[	.	.	.	.	.	.	.	.	.	.	.	.	.	.	.	.
.	.	.	.	.	.	.	.	.	.	.	.	8FF#J	.	.	8FF#J	.	.	.	.	.	.	8r	.	.	.
=6	=6	=6	=6	=6	=6	=6	=6	=6	=6	=6	=6	=6	=6	=6	=6	=6	=6	=6	=6	=6	=6	=6	=6	=6	=6
*	*	*	*	*	*	*	*	*	*	*	*	*	*	*	*	*	*	*	*	*	*	*^	*	*	*
!	!	!	!	!	!	!	!	!	!	!	!	!	!	!	!	!	!	!	!	!	!	!LO:TX:b:t=2o.	!	!	!	!
2.FF#X_	.	2.B	>	2.d	>	2.g#X	>	2.ee	>	8%9r	8%9r	8r	8%9r	.	8r	.	8%9r	.	8%9r	4.FF#X]	.	8%9r	4.r	.	8%9r	.
.	.	.	.	.	.	.	.	.	.	.	.	8FF#XL	.	.	16FF#XLL	.	.	.	.	.	.	.	.	.	.	.
.	.	.	.	.	.	.	.	.	.	.	.	.	.	.	16FF#	.	.	.	.	.	.	.	.	.	.	.
.	.	.	.	.	.	.	.	.	.	.	.	8GG-XJ	.	.	16FF#	.	.	.	.	.	.	.	.	.	.	.
.	.	.	.	.	.	.	.	.	.	.	.	.	.	.	16FF#JJ	.	.	.	.	.	.	.	.	.	.	.
.	.	.	.	.	.	.	.	.	.	.	.	8FF#L	.	.	8FF#L	.	.	.	.	4r	.	.	[2.FF#X	.	.	.
.	.	.	.	.	.	.	.	.	.	.	.	8GG-	.	.	8FF#	.	.	.	.	.	.	.	.	.	.	.
.	.	.	.	.	.	.	.	.	.	.	.	8FF#J	.	.	8FF#J	.	.	.	.	8r	.	.	.	.	.	.
!	!	!LO:TX:b:i:t=cresc.	!	!LO:TX:b:i:t=cresc.	!	!LO:TX:b:i:t=cresc.	!	!LO:TX:b:i:t=cresc.	!	!	!	!	!	!	!	!	!	!	!	!	!	!	!	!	!	!
4.FF#_	.	(4.e-X	]	(4.g	]	(4.cc#X	]	(4.aa	]	.	.	8r	.	.	8r	.	.	.	.	4r	.	.	.	.	.	.
.	.	.	.	.	.	.	.	.	.	.	.	8GG-L	.	.	8FF#L	.	.	.	.	.	.	.	.	.	.	.
.	.	.	.	.	.	.	.	.	.	.	.	8FF#J	.	.	8FF#J	.	.	.	.	8r	.	.	.	.	.	.
*	*	*	*	*	*	*	*	*	*	*	*	*	*	*	*	*	*	*	*v	*v	*	*	*	*	*	*
!!pagebreak:original
=7	=7	=7	=7	=7	=7	=7	=7	=7	=7	=7	=7	=7	=7	=7	=7	=7	=7	=7	=7	=7	=7	=7	=7	=7	=7
!	!	!	!	!	!	!	!	!LO:TX:a:B:t=poco affrett.	!	!	!	!	!	!	!	!	!	!	!	!	!	!	!	!LO:TX:a:B:t=poco affrett.	!
2.FF#_	.	([4.A)	<	([4.c)	<	([4.f#X)	<	([4.dd)	<	8%9r	8%9r	8r	8%9r	.	8r	.	8%9r	.	8%9r	.	8%9r	2.FF#_	.	8%9r	.
.	.	.	.	.	.	.	.	.	.	.	.	8FF#XL	.	.	16FF#XLL	.	.	.	.	.	.	.	.	.	.
.	.	.	.	.	.	.	.	.	.	.	.	.	.	.	16FF#	.	.	.	.	.	.	.	.	.	.
.	.	.	.	.	.	.	.	.	.	.	.	8GG-XJ	.	.	16FF#	.	.	.	.	.	.	.	.	.	.
.	.	.	.	.	.	.	.	.	.	.	.	.	.	.	16FF#JJ	.	.	.	.	.	.	.	.	.	.
.	.	8.AL]	.	8.cL]	.	8.f#L]	.	8.ddL]	.	.	.	8FF#L	.	.	8FF#L	.	.	.	.	.	.	.	.	.	.
.	.	.	.	.	.	.	.	.	.	.	.	8GG-	.	.	8FF#	.	.	.	.	.	.	.	.	.	.
.	.	8.B	.	8.d	.	8.g#X	.	8.ee	.	.	.	.	.	.	.	.	.	.	.	.	.	.	.	.	.
.	.	.	.	.	.	.	.	.	.	.	.	8FF#J	.	.	8FF#J	.	.	.	.	.	.	.	.	.	.
4.FF#_	.	8.c#X	.	8.e	.	8.a#X	.	8.ff#X	.	.	.	8r	.	.	8r	.	.	.	.	.	.	4.FF#_	.	.	.
.	.	.	.	.	.	.	.	.	.	.	.	8GG-L	.	.	8FF#L	.	.	.	.	.	.	.	.	.	.
.	.	8.dJ)	.	8.fJ)	.	8.bJ)	.	8.ggJ)	.	.	.	.	.	.	.	.	.	.	.	.	.	.	.	.	.
.	.	.	.	.	.	.	.	.	.	.	.	8FF#J	.	.	8FF#J	.	.	.	.	.	.	.	.	.	.
=8	=8	=8	=8	=8	=8	=8	=8	=8	=8	=8	=8	=8	=8	=8	=8	=8	=8	=8	=8	=8	=8	=8	=8	=8	=8
*	*	*	*	*	*	*	*	*	*	*	*	*	*	*	*	*	*	*	*^	*	*	*	*	*	*
2.FF#X_	.	(8.GL	.	(8.BL	.	(8.e#XL	.	(8.cc#XL	.	8%9r	8%9r	8r	8%9r	.	8r	.	8%9r	.	8%9r	4.r	.	8%9r	4.FF#X]	mf	4r	.
.	.	.	.	.	.	.	.	.	.	.	.	8FF#XL	.	.	16FF#XLL	.	.	.	.	.	.	.	.	.	.	.
.	.	8.A	.	8.c	.	8.f#X	.	8.dd	.	.	.	.	.	.	16FF#	.	.	.	.	.	.	.	.	.	.	.
.	.	.	.	.	.	.	.	.	.	.	.	8GG-XJ	.	.	16FF#	.	.	.	.	.	.	.	.	.	8r	.
.	.	.	.	.	.	.	.	.	.	.	.	.	.	.	16FF#JJ	.	.	.	.	.	.	.	.	.	.	.
.	.	8.B	.	8.d	.	8.g#X	.	8.ee	.	.	.	8FF#L	.	.	8FF#L	.	.	.	.	[2.FF#X	.	.	4r	.	4r	.
.	.	.	.	.	.	.	.	.	.	.	.	8GG-	.	.	8FF#	.	.	.	.	.	.	.	.	.	.	.
.	.	8.c#XJ)	.	8.eJ)	.	8.a#XJ)	.	8.ff#XJ)	.	.	.	.	.	.	.	.	.	.	.	.	.	.	.	.	.	.
.	.	.	.	.	.	.	.	.	.	.	.	8FF#J	.	.	8FF#J	.	.	.	.	.	.	.	8r	.	8r	.
!	!	!	!	!	!	!	!	!LO:TX:a:B:t=calmando	!	!	!	!	!	!	!	!	!	!	!	!	!	!	!	!	!LO:TX:a:B:t=calmando	!
4.FF#_	.	4.g~	f [	(8.f#X~L	f [	4.d~ 4.b	f [	(8.b~L	f [	.	.	8r	.	.	8r	.	.	.	.	.	.	.	4.d	.	(8.f#X~L	f >
.	.	.	.	.	.	.	.	.	.	.	.	8GG-L	.	.	8FF#L	.	.	.	.	.	.	.	.	.	.	.
.	.	.	.	8.eJ)	.	.	.	8.eeJ)	.	.	.	.	.	.	.	.	.	.	.	.	.	.	.	.	8.eJ)	]
.	.	.	.	.	.	.	.	.	.	.	.	8FF#J	.	.	8FF#J	.	.	.	.	.	.	.	.	.	.	.
=9	=9	=9	=9	=9	=9	=9	=9	=9	=9	=9	=9	=9	=9	=9	=9	=9	=9	=9	=9	=9	=9	=9	=9	=9	=9	=9
2.FF#X_	.	4.f#X~	.	(8.e~L	.	4.c#X~ 4.a	.	(8.a~L	.	8%9r	8%9r	8r	8%9r	.	8r	.	8%9r	.	8%9r	2.FF#X_	.	4r	4.c#X	.	(8.eL	>
.	.	.	.	.	.	.	.	.	.	.	.	8FF#XL	.	.	16FF#XLL	.	.	.	.	.	.	.	.	.	.	.
.	.	.	.	8.dJ)	.	.	.	8.ddJ)	.	.	.	.	.	.	16FF#	.	.	.	.	.	.	.	.	.	8.dJ)	.
.	.	.	.	.	.	.	.	.	.	.	.	8GG-XJ	.	.	16FF#	.	.	.	.	.	.	8r	.	.	.	.
.	.	.	.	.	.	.	.	.	.	.	.	.	.	.	16FF#JJ	.	.	.	.	.	.	.	.	.	.	.
!	!	!	!	!	!	!	!	!LO:TX:a:B:t=poco rit.	!	!	!	!	!	!	!	!	!	!	!	!	!	!	!	!	!LO:TX:a:B:t=poco rit.	!
.	.	(4.e~	.	2.fn~	.	2.B~	.	(8.g~L	.	.	.	8FF#L	.	.	8FF#L	.	.	.	.	.	.	(8.g~L	2.BX~	mf	(4.e	f ]
.	.	.	.	.	.	.	.	.	.	.	.	8GG-	.	.	8FF#	.	.	.	.	.	.	.	.	.	.	.
.	.	.	.	.	.	.	.	8.a~	.	.	.	.	.	.	.	.	.	.	.	.	.	8.a~	.	.	.	.
.	.	.	.	.	.	.	.	.	.	.	.	8FF#J	.	.	8FF#J	.	.	.	.	.	.	.	.	.	.	.
4.FF#_	.	4.d~	.	.	.	.	.	8.b~	.	.	.	8r	.	.	8r	.	.	.	.	4.FF#_	.	8.bX~	.	.	4.d	.
.	.	.	.	.	.	.	.	.	.	.	.	8GG-L	.	.	8FF#L	.	.	.	.	.	.	.	.	.	.	.
.	.	.	.	.	.	.	.	8.cc#X~J)	.	.	.	.	.	.	.	.	.	.	.	.	.	8.cc#X~J)	.	.	.	.
.	.	.	.	.	.	.	.	.	.	.	.	8FF#J	.	.	8FF#J	.	.	.	.	.	.	.	.	.	.	.
!!pagebreak:original
=10	=10	=10	=10	=10	=10	=10	=10	=10	=10	=10	=10	=10	=10	=10	=10	=10	=10	=10	=10	=10	=10	=10	=10	=10	=10	=10
!	!	!	!	!	!	!	!	!LO:TX:a:B:t=a tempo	!	!	!	!	!	!	!	!	!	!	!	!	!	!	!	!	!LO:TX:a:B:t=a tempo	!
2.FF#_	.	2.c#X~)	>	2.e~	>	2.A#X~	>	2.f#X~	>	8%9r	8%9r	8r	8%9r	.	8r	.	8%9r	.	8%9r	4.FF#]	.	[4.f#X~	[4.A#X	> >	2.c#X)	>
.	.	.	.	.	.	.	.	.	.	.	.	8FF#XL	.	.	16FF#XLL	.	.	.	.	.	.	.	.	.	.	.
.	.	.	.	.	.	.	.	.	.	.	.	.	.	.	16FF#	.	.	.	.	.	.	.	.	.	.	.
.	.	.	.	.	.	.	.	.	.	.	.	8GG-XJ	.	.	16FF#	.	.	.	.	.	.	.	.	.	.	.
.	.	.	.	.	.	.	.	.	.	.	.	.	.	.	16FF#JJ	.	.	.	.	.	.	.	.	.	.	.
.	.	.	.	.	.	.	.	.	.	.	.	8FF#L	.	.	8FF#L	.	.	.	.	[2.FF#	.	8f#]	8A#]	] ]	.	.
*	*	*	*	*	*	*	*	*	*	*	*	*	*	*	*	*	*	*	*	*	*	*v	*v	*	*	*
.	.	.	.	.	.	.	.	.	.	.	.	8GG-	.	.	8FF#	.	.	.	.	.	.	8r	.	.	.
.	.	.	.	.	.	.	.	.	.	.	.	8FF#J	.	.	8FF#J	.	.	.	.	.	.	8r	.	.	.
4.FF#_	.	(4.d	mf ]	(4.b	mf ]	(4.g#X	mf ]	(4.ee	mf ]	.	.	8r	.	.	8r	.	.	.	.	.	.	4r	.	(4.d	mf ]
.	.	.	.	.	.	.	.	.	.	.	.	8GG-L	.	.	8FF#L	.	.	.	.	.	.	.	.	.	.
.	.	.	.	.	.	.	.	.	.	.	.	8FF#J	.	.	8FF#J	.	.	.	.	.	.	8r	.	.	.
=11	=11	=11	=11	=11	=11	=11	=11	=11	=11	=11	=11	=11	=11	=11	=11	=11	=11	=11	=11	=11	=11	=11	=11	=11	=11
2.FF#X_	.	2.f#X)	.	2.c#X)	.	2.A#X)	.	2.e)	.	8%9r	8%9r	8r	8%9r	.	8r	.	8%9r	.	8%9r	4.FF#X]	.	8%9r	.	[4.f#X)	.
.	.	.	.	.	.	.	.	.	.	.	.	8FF#XL	.	.	16FF#XLL	.	.	.	.	.	.	.	.	.	.
.	.	.	.	.	.	.	.	.	.	.	.	.	.	.	16FF#	.	.	.	.	.	.	.	.	.	.
.	.	.	.	.	.	.	.	.	.	.	.	8GG-XJ	.	.	16FF#	.	.	.	.	.	.	.	.	.	.
.	.	.	.	.	.	.	.	.	.	.	.	.	.	.	16FF#JJ	.	.	.	.	.	.	.	.	.	.
.	.	.	.	.	.	.	.	.	.	.	.	8FF#L	.	.	8FF#L	.	.	.	.	[2.FF#	.	.	.	8f#]	.
.	.	.	.	.	.	.	.	.	.	.	.	8GG-	.	.	8FF#	.	.	.	.	.	.	.	.	8r	.
.	.	.	.	.	.	.	.	.	.	.	.	8FF#J	.	.	8FF#J	.	.	.	.	.	.	.	.	8r	.
*	*	*	*	*	*	*^	*	*^	*	*	*	*	*	*	*	*	*	*	*	*	*	*	*	*	*
!	!	!	!	!	!	!LO:TX:a:t=div.	!	!	!LO:TX:a:t=div.	!	!	!	!	!	!	!	!	!	!	!	!	!	!	!	!	!	!
4.FF#_	.	4r	.	4r	.	(4.b~	(4.d	p > ]	(4.ee~	(4.g#X	p > ]	.	.	8r	.	.	8r	.	.	.	.	.	.	.	.	4.r	.
.	.	.	.	.	.	.	.	.	.	.	.	.	.	8GG-L	.	.	8FF#L	.	.	.	.	.	.	.	.	.	.
.	.	8r	.	8r	.	.	.	.	.	.	.	.	.	8FF#J	.	.	8FF#J	.	.	.	.	.	.	.	.	.	.
*	*	*clefF4	*	*	*	*	*	*	*	*	*	*	*	*	*	*	*	*	*	*	*	*	*	*	*	*	*
=12	=12	=12	=12	=12	=12	=12	=12	=12	=12	=12	=12	=12	=12	=12	=12	=12	=12	=12	=12	=12	=12	=12	=12	=12	=12	=12	=12
8FF#XL]	.	8r	.	8%9r	.	[2.e)	[2.c#X)	>	[2.f#X)	[2.A#X)	>	8%9r	8%9r	8%9r	8%9r	.	8%9r	.	8%9r	.	8%9r	4.FF#X]	.	8%9r	.	8%9r	.
16FF#L	pp	16FF#XLL	pp	.	.	.	.	.	.	.	.	.	.	.	.	.	.	.	.	.	.	.	.	.	.	.	.
16FF#	.	16FF#	.	.	.	.	.	.	.	.	.	.	.	.	.	.	.	.	.	.	.	.	.	.	.	.	.
16FF#	.	16FF#	.	.	.	.	.	.	.	.	.	.	.	.	.	.	.	.	.	.	.	.	.	.	.	.	.
16FF#JJ	.	16FF#JJ	.	.	.	.	.	.	.	.	.	.	.	.	.	.	.	.	.	.	.	.	.	.	.	.	.
8FF#L	.	8FF#L	.	.	.	.	.	.	.	.	.	.	.	.	.	.	.	.	.	.	.	4r	.	.	.	.	.
8FF#	.	8FF#	.	.	.	.	.	.	.	.	.	.	.	.	.	.	.	.	.	.	.	.	.	.	.	.	.
[8FF#J	.	[8FF#J	.	.	.	.	.	.	.	.	.	.	.	.	.	.	.	.	.	.	.	8r	.	.	.	.	.
8FF#L]	.	8FF#L]	.	.	.	4.e]	4.c#]	]	4.f#]	4.A#]	]	.	.	.	.	.	.	.	.	.	.	4r	.	.	.	.	.
8FF#	.	8FF#	.	.	.	.	.	.	.	.	.	.	.	.	.	.	.	.	.	.	.	.	.	.	.	.	.
[8FF#J	.	[8FF#J	.	.	.	.	.	.	.	.	.	.	.	.	.	.	.	.	.	.	.	8r	.	.	.	.	.
*	*	*	*	*	*	*v	*v	*	*	*	*	*	*	*	*	*	*	*	*	*	*v	*v	*	*	*	*	*
*	*	*	*	*	*	*	*	*v	*v	*	*	*	*	*	*	*	*	*	*	*	*	*	*	*	*
=||	=||	=||	=||	=||	=||	=||	=||	=||	=||	=||	=||	=||	=||	=||	=||	=||	=||	=||	=||	=||	=||	=||	=||	=||
*-	*-	*-	*-	*-	*-	*-	*-	*-	*-	*-	*-	*-	*-	*-	*-	*-	*-	*-	*-	*-	*-	*-	*-	*-
!!!system-decoration: [(s1[(s2,s3)]s4,s5[({(s6,s7)})][({(s8,s9)})][(s10,s11)]s12[(s13,s14)])]
